src/img/icons/status-danger.svg

<svg width="32" height="32" viewBox="0 0 32 32" fill="none" xmlns="http://www.w3.org/2000/svg">
<path d="M11.4043 30C11.0024 30 10.6195 29.9229 10.2555 29.7686C9.89147 29.6146 9.57441 29.4024 9.30429 29.132L2.868 22.6957C2.59761 22.4256 2.38541 22.1085 2.23141 21.7445C2.07714 21.3805 2 20.9976 2 20.5957V11.4043C2 11.0024 2.07714 10.6195 2.23141 10.2555C2.38541 9.89147 2.59761 9.57441 2.868 9.30429L9.30429 2.868C9.57441 2.59761 9.89147 2.38541 10.2555 2.23141C10.6195 2.07714 11.0024 2 11.4043 2H20.5957C20.9976 2 21.3805 2.07714 21.7445 2.23141C22.1085 2.38541 22.4256 2.59761 22.6957 2.868L29.132 9.30429C29.4024 9.57441 29.6146 9.89147 29.7686 10.2555C29.9229 10.6195 30 11.0024 30 11.4043V20.5957C30 20.9976 29.9229 21.3805 29.7686 21.7445C29.6146 22.1085 29.4024 22.4256 29.132 22.6957L22.6957 29.132C22.4256 29.4024 22.1085 29.6146 21.7445 29.7686C21.3805 29.9229 20.9976 30 20.5957 30H11.4043Z" fill="#E22339"/>
<path d="M14.931 7.43051C15.218 7.14318 15.5742 6.99951 15.9995 6.99951C16.4245 6.99951 16.7808 7.14318 17.0685 7.43051C17.3562 7.71818 17.5 8.07451 17.5 8.49951L17.4995 16.5C17.4995 16.925 17.3558 17.2812 17.0685 17.5685C16.7815 17.8562 16.4253 18 16 18C15.575 18 15.2187 17.8562 14.931 17.5685C14.6433 17.2812 14.4995 16.925 14.4995 16.5L14.5 8.49951C14.5 8.07451 14.6437 7.71818 14.931 7.43051Z" fill="white"/>
<path d="M16 21.5006C15.5042 21.5006 15.0886 21.6683 14.7532 22.0037C14.4177 22.3392 14.25 22.7548 14.25 23.2505C14.25 23.7463 14.4177 24.1619 14.7532 24.4974C15.0886 24.8325 15.5042 25 16 25C16.4958 25 16.9114 24.8325 17.2468 24.4974C17.5823 24.1619 17.75 23.7463 17.75 23.2505C17.75 22.7548 17.5823 22.3392 17.2468 22.0037C16.9114 21.6683 16.4958 21.5006 16 21.5006Z" fill="white"/>
</svg>

<svg xmlns="http://www.w3.org/2000/svg" width="32" height="32" fill="none" viewBox="0 0 32 32">
  <path fill="#E22339" d="M11.404 30c-.402 0-.784-.077-1.149-.231a2.96 2.96 0 0 1-.95-.637l-6.437-6.436a2.96 2.96 0 0 1-.637-.952A2.914 2.914 0 0 1 2 20.596v-9.192c0-.402.077-.784.231-1.149a2.96 2.96 0 0 1 .637-.95l6.436-6.437c.27-.27.587-.483.951-.637A2.914 2.914 0 0 1 11.405 2h9.19a2.971 2.971 0 0 1 2.1.868l6.437 6.436A2.965 2.965 0 0 1 30 11.405v9.19c0 .403-.077.786-.231 1.15a2.96 2.96 0 0 1-.637.95l-6.436 6.437a2.96 2.96 0 0 1-.952.637 2.913 2.913 0 0 1-1.148.231h-9.192Z"/>
  <path fill="#fff" d="M14.931 7.43A1.45 1.45 0 0 1 16 7c.424 0 .78.143 1.069.43.287.288.431.645.431 1.07v8c0 .425-.144.781-.431 1.069A1.449 1.449 0 0 1 16 18c-.425 0-.781-.144-1.069-.431A1.45 1.45 0 0 1 14.5 16.5v-8c0-.425.144-.782.431-1.07ZM16 21.5c-.496 0-.911.168-1.247.504a1.693 1.693 0 0 0-.503 1.246c0 .496.168.912.503 1.247.336.335.751.503 1.247.503.496 0 .911-.168 1.247-.503.335-.335.503-.75.503-1.247 0-.495-.168-.91-.503-1.246A1.693 1.693 0 0 0 16 21.5Z"/>
</svg>
